X: 6
T: Old Lancashire Hornpipe, The
Z: ceolachan
S: https://thesession.org/tunes/8138#setting27657
R: three-two
M: 3/2
L: 1/8
K: Dmaj
M: 6/4
|: B2 A2 G2 F2- FE D2 | f2 e2 d2 e2 E4 |\
B2 A2 G2 F2- FE D2 | f2 e2 dc d2 D4 :|
|: [M: 3/4] | B2 A2 G2 | [M: 3/2] | FGA2 GAB2 A2d2 | [M: 3/4] e2 E4 |\
[M: 3/4] B2 A2 G2 | [M: 3/2] FGAF GABG ABc2 | [M: 3/4] d2 D4 :|
M: 6/4
|: f2 g2 a2 f2- fe d2 | f2 e2 d2 c2 e4 |\
f2 g2 a2 f2- fe d2 | f2 e2 dc d2 D4 :|
